X: 12
T: The Galway Rambler
R: reel
M: 4/4
L: 1/8
K: Gmaj
G2 dG eGdG| G2 dB AGEF | GFGA BABd | gedB AGEF |
G2 dG eGdG| G2 dB AGEF | GFGA BABd | gedB A2 Bd ||
gfgb a2ab|gabg agef|~g3 b a2ab|gedB A2 Bd|
gabg gabg | gabg a2ga|bgag (3efg fa|gedB AGEF||

